X:1
T: One is One and All Alone
N:
C:tune is "John's Jig" by John Stapledon
S:
A:
O:
R:
M:6/8
K:G
I:speed 150
%W: A1
% voice 1 (1 lines, 40 notes)
K:G
M:6/8
L:1/16
D2 |G4 G2 A2 G2 A2 B4 d2 d4 c2 B2 d2 c2 B2 A2 G2 E2 A2 G2 F2 E2 D2 |G4 G2 A2 G2 A2 B4 d2 d4 c2 B2 d2 B2 c2 A2 F2 G6G4 D2 |
%W: A2
% voice 1 (1 lines, 40 notes)
G4 G2 A2 G2 A2 B4 d2 d4 c2 B2 d2 c2 B2 A2 G2 E2 A2 G2 F2 E2 D2 |G4 G2 A2 G2 A2 B4 d2 d4 c2 B2 d2 B2 c2 A2 F2 G6 d2 e2 f2 |
%W: B1
% voice 1 (1 lines, 40 notes)
g4 g2 e2 f2 g2 f2 a2 f2 d4 B2 e4 e2 c2 d2 e2 d2 g2 d2 B4 G2 |c4 c2 A2 B2 c2 B2 d2 B2 G4 B2 A2 ^c2 e2 g2 e2 c2 d6 d2 e2 f2 |
%W: B2
% voice 1 (1 lines, 35 notes)
g4 g2 e2 f2 g2 f2 a2 f2 d4 ^d2 e4 e2 c2 d2 e2 d6 B4 A2 |G4 G2 A2 G2 A2 B4 d2 d4 c2 B2 d2 B2 c2 A2 F2 G6G4 ||
